X:1
T:Drieskeslied
C:Trad.
O:Vlaanderen
Z:Bart Vanhaverbeke 
L:1/8
M:4/4
K:F
FF/F/ FF AF A2 | [AF][A/F/][A/F/] [AF][AF] [cA][AF] [c2A2] | [c3B3E3][c/B/E/][c/B/E/] [c3B3E3][c/B/E/][c/B/E/] | [cBE]>[cBE] [cBE]>[cBE] [c2B2E2] z C |
"F"F3 G [A2F2] z C | "Bb" DE F2 "F" C2 z C | "C7"C2 E2 BA G2 | "Cdim"[^F2^D2] A2 "C7"[G2E2] z C |
"F" F3 G A2 z [cA] | [c3A3] [BG] [A2F2] z [AF] | "C7"[B2E2] [A2E2] [G3E3] [FD] | [E2C2] [G2E2C2] "F"C2 C2 |
"F"F2 F2 "C7"G2 FG | "F"[A3F3] G F2 C2 | [A2F2] [A2F2] "C7"[B2G2] [AF][BG] |"F"[c3A3] [BG] [A2F2] F2 |
"Bb"[d2F2] [c2E2] [B3D3] [dF] | "F"[c3A3] [BG] [A2F2] F2 | "G7"G3 G F2 D2 | [G4D4B,4] "C" C2 z2 |
M:2/4
L:1/8
"F"[A2F2] [AF]>G | F2C2 | "Bb"D2 EF | "F" [C3A,3] z | "C7" C2 C>C | [B2G2] [A2F2] | "C7" [G2E2] "Cdim" [^F2^D2] | "C7" [G3E3C3] z |
"F"[A2F2] [AF]>G | F2C2 | "Gmin" B,2 [D2B,2] | [G3D3B,3] "C7"[BG] | "F"AG FC | "Gmin" [D2B,2] "C7" [G2E2B,2] | "F" ([F4C4A,4] | [F2C2A,2]) z2 |]
